widgets/lineedit.svg

<?xml version="1.0" encoding="UTF-8" standalone="no"?>
<svg id="svg2" xmlns:rdf="http://www.w3.org/1999/02/22-rdf-syntax-ns#" xmlns="http://www.w3.org/2000/svg" height="20" width="20" version="1.0" xmlns:cc="http://creativecommons.org/ns#" xmlns:xlink="http://www.w3.org/1999/xlink" xmlns:dc="http://purl.org/dc/elements/1.1/">
	<metadata id="metadata7">
		<rdf:RDF>
			<cc:Work rdf:about="">
				<dc:format>image/svg+xml</dc:format>
				<dc:type rdf:resource="http://purl.org/dc/dcmitype/StillImage"/>
				<dc:title/>
				<cc:license rdf:resource="http://creativecommons.org/licenses/by-nc-sa/3.0/"/>
				<dc:creator>
					<cc:Agent>
						<dc:title>obnosim</dc:title>
					</cc:Agent>
				</dc:creator>
			</cc:Work>
			<cc:Work rdf:about="">
				<dc:format>image/svg+xml</dc:format>
				<dc:type rdf:resource="http://purl.org/dc/dcmitype/StillImage"/>
			</cc:Work>
			<cc:License rdf:about="http://creativecommons.org/licenses/by-nc-sa/3.0/">
				<cc:permits rdf:resource="http://creativecommons.org/ns#Reproduction"/>
				<cc:permits rdf:resource="http://creativecommons.org/ns#Distribution"/>
				<cc:requires rdf:resource="http://creativecommons.org/ns#Notice"/>
				<cc:requires rdf:resource="http://creativecommons.org/ns#Attribution"/>
				<cc:prohibits rdf:resource="http://creativecommons.org/ns#CommercialUse"/>
				<cc:permits rdf:resource="http://creativecommons.org/ns#DerivativeWorks"/>
				<cc:requires rdf:resource="http://creativecommons.org/ns#ShareAlike"/>
			</cc:License>
		</rdf:RDF>
	</metadata>
	<defs id="defs5">
		<linearGradient id="linearGradient4059-7" xlink:href="#linearGradient3887-2" gradientUnits="userSpaceOnUse" x2="0" y1="20"/>
		<linearGradient id="linearGradient3887-2">
			<stop id="stop3889-7" style="stop-color:#f8f8f8" offset="0"/>
			<stop id="stop3891-7" style="stop-color:#f0f0f0" offset="1"/>
		</linearGradient>
		<linearGradient id="linearGradient4061-6" xlink:href="#linearGradient3887-2" gradientUnits="userSpaceOnUse" x2="10" y1="20" x1="10"/>
	</defs>
	<rect id="base-hint-stretch-borders" style="fill:#008000" rx="0" ry="4" height="4" width="4" y="-5" x="20"/>
	<g id="base-topleft">
		<path id="rect3922" style="fill:url(#linearGradient4059-7)" d="m3 0c-1.662 0-3 1.338-3 3h3v-3z"/>
		<path id="path3914" style="opacity:0.062;fill:#000000" d="m3 0c-1.662 0-3 1.338-3 3 0-.554 1.338-1 3-1v-2z"/>
	</g>
	<g id="base-topright">
		<path id="rect3934" style="fill:url(#linearGradient4061-6)" d="m17 0v3h3c0-1.662-1.338-3-3-3z"/>
		<path id="path4028" style="opacity:0.062;fill:#000000" d="m17 0v2c1.662 0 3 .446 3 1 0-1.662-1.338-3-3-3z"/>
	</g>
	<g id="base-top">
		<g id="g4012">
			<path id="rect3936" style="fill:url(#linearGradient4061-6)" d="m3 0v3h14v-3h-14z"/>
		</g>
		<path id="rect3879" style="opacity:0.062;fill:#000000" d="m3 0v2h14v-2h-14z"/>
	</g>
	<path id="base-center" style="fill:url(#linearGradient4061-6)" d="m3 3v14h14v-14h-14z"/>
	<path id="base-left" style="fill:url(#linearGradient4061-6)" d="m0 3v14h3v-14h-3z"/>
	<path id="base-right" style="fill:url(#linearGradient4061-6)" d="m17 3v14h3v-14h-3z"/>
	<g id="base-bottomright">
		<path id="rect3932" style="fill:url(#linearGradient4061-6)" d="m17 17v3c1.662 0 3-1.338 3-3h-3z"/>
		<path id="rect3895" style="fill:#ffffff" d="m20 17c0 1.108-1.338 2-3 2v1c1.662 0 3-1.338 3-3z"/>
	</g>
	<g id="base-bottomleft">
		<path id="rect3926" style="fill:url(#linearGradient4061-6)" d="m0 17c0 1.662 1.338 3 3 3v-3h-3z"/>
		<path id="path3916" style="fill:#ffffff" d="m0 17c0 1.662 1.338 3 3 3v-1c-1.662 0-3-.892-3-2z"/>
	</g>
	<g id="base-bottom">
		<path id="rect3928" style="fill:url(#linearGradient4061-6)" d="m3 17v3h14v-3h-14z"/>
		<path id="path3918" style="opacity:.875;fill:#ffffff" d="m3 19v1h14v-1h-14z"/>
	</g>
</svg>

<?xml version="1.0" encoding="UTF-8" standalone="no"?>
<!-- Created with Inkscape (http://www.inkscape.org/) -->

<svg
   xmlns:dc="http://purl.org/dc/elements/1.1/"
   xmlns:cc="http://creativecommons.org/ns#"
   xmlns:rdf="http://www.w3.org/1999/02/22-rdf-syntax-ns#"
   xmlns:svg="http://www.w3.org/2000/svg"
   xmlns="http://www.w3.org/2000/svg"
   xmlns:xlink="http://www.w3.org/1999/xlink"
   xmlns:sodipodi="http://sodipodi.sourceforge.net/DTD/sodipodi-0.dtd"
   xmlns:inkscape="http://www.inkscape.org/namespaces/inkscape"
   version="1.0"
   width="20"
   height="20"
   id="svg2"
   inkscape:version="0.91 r13725"
   sodipodi:docname="lineedit.svg">
  <sodipodi:namedview
     pagecolor="#323232"
     bordercolor="#666666"
     borderopacity="1"
     objecttolerance="10"
     gridtolerance="10"
     guidetolerance="10"
     inkscape:pageopacity="1"
     inkscape:pageshadow="2"
     inkscape:window-width="1920"
     inkscape:window-height="1056"
     id="namedview89"
     showgrid="true"
     showborder="false"
     showguides="false"
     inkscape:zoom="22.627417"
     inkscape:cx="24.93415"
     inkscape:cy="12.164002"
     inkscape:current-layer="svg2"
     guidecolor="#000000"
     guideopacity="0.49803922"
     inkscape:window-x="0"
     inkscape:window-y="-3"
     inkscape:window-maximized="1">
    <inkscape:grid
       type="xygrid"
       id="grid4881"
       empspacing="4"
       visible="true"
       enabled="true"
       snapvisiblegridlinesonly="true"
       color="#000000"
       opacity="0.1254902"
       empcolor="#000000"
       empopacity="0.25098039" />
  </sodipodi:namedview>
  <metadata
     id="metadata7">
    <rdf:RDF>
      <cc:Work
         rdf:about="">
        <dc:format>image/svg+xml</dc:format>
        <dc:type
           rdf:resource="http://purl.org/dc/dcmitype/StillImage" />
        <dc:title />
        <cc:license
           rdf:resource="http://creativecommons.org/licenses/by-nc-sa/3.0/" />
        <dc:creator>
          <cc:Agent>
            <dc:title>obnosim</dc:title>
          </cc:Agent>
        </dc:creator>
      </cc:Work>
      <cc:Work
         rdf:about="">
        <dc:format>image/svg+xml</dc:format>
        <dc:type
           rdf:resource="http://purl.org/dc/dcmitype/StillImage" />
      </cc:Work>
      <cc:License
         rdf:about="http://creativecommons.org/licenses/by-nc-sa/3.0/">
        <cc:permits
           rdf:resource="http://creativecommons.org/ns#Reproduction" />
        <cc:permits
           rdf:resource="http://creativecommons.org/ns#Distribution" />
        <cc:requires
           rdf:resource="http://creativecommons.org/ns#Notice" />
        <cc:requires
           rdf:resource="http://creativecommons.org/ns#Attribution" />
        <cc:prohibits
           rdf:resource="http://creativecommons.org/ns#CommercialUse" />
        <cc:permits
           rdf:resource="http://creativecommons.org/ns#DerivativeWorks" />
        <cc:requires
           rdf:resource="http://creativecommons.org/ns#ShareAlike" />
      </cc:License>
    </rdf:RDF>
  </metadata>
  <defs
     id="defs5">
    <linearGradient
       x1="0"
       y1="20"
       x2="0"
       y2="0"
       id="linearGradient4059-7"
       xlink:href="#linearGradient3887-2"
       gradientUnits="userSpaceOnUse" />
    <linearGradient
       id="linearGradient3887-2">
      <stop
         id="stop3889-7"
         style="stop-color:#f8f8f8;stop-opacity:1"
         offset="0" />
      <stop
         id="stop3891-7"
         style="stop-color:#f0f0f0;stop-opacity:1"
         offset="1" />
    </linearGradient>
    <linearGradient
       x1="10"
       y1="20"
       x2="10"
       y2="0"
       id="linearGradient4061-6"
       xlink:href="#linearGradient3887-2"
       gradientUnits="userSpaceOnUse" />
    <linearGradient
       x1="10"
       y1="20"
       x2="10"
       y2="0"
       id="linearGradient3981-7"
       xlink:href="#linearGradient3887-2"
       gradientUnits="userSpaceOnUse" />
    <linearGradient
       x1="10"
       y1="20"
       x2="10"
       y2="0"
       id="linearGradient4086-5"
       xlink:href="#linearGradient3887-2"
       gradientUnits="userSpaceOnUse" />
    <linearGradient
       x1="10"
       y1="20"
       x2="10"
       y2="0"
       id="linearGradient3968-2"
       xlink:href="#linearGradient3887-2"
       gradientUnits="userSpaceOnUse" />
    <linearGradient
       x1="10"
       y1="20"
       x2="10"
       y2="0"
       id="linearGradient4088-7"
       xlink:href="#linearGradient3887-2"
       gradientUnits="userSpaceOnUse" />
    <linearGradient
       x1="10"
       y1="20"
       x2="10"
       y2="0"
       id="linearGradient3280"
       xlink:href="#linearGradient3887-2"
       gradientUnits="userSpaceOnUse" />
    <linearGradient
       inkscape:collect="always"
       xlink:href="#linearGradient3887-2"
       id="linearGradient3876"
       gradientUnits="userSpaceOnUse"
       x1="10"
       y1="20"
       x2="10"
       y2="0" />
    <linearGradient
       inkscape:collect="always"
       xlink:href="#linearGradient3887-2"
       id="linearGradient3882"
       gradientUnits="userSpaceOnUse"
       x1="10"
       y1="20"
       x2="10"
       y2="0" />
  </defs>
  <rect
     width="4"
     height="4"
     rx="0"
     ry="4"
     x="20"
     y="-5"
     id="base-hint-stretch-borders"
     style="fill:#008000;fill-opacity:1;fill-rule:nonzero;stroke:none" />
  <g
     id="base-topleft">
    <path
       inkscape:connector-curvature="0"
       d="M 3,0 C 1.338,0 0,1.338 0,3 L 3,3 3,0 z"
       id="rect3922"
       style="fill:url(#linearGradient4059-7);fill-opacity:1;fill-rule:nonzero;stroke:none" />
    <path
       inkscape:connector-curvature="0"
       d="M 3,0 C 1.338,0 0,1.338 0,3 0,2.446 1.338,2 3,2 L 3,0 z"
       id="path3914"
       style="opacity:0.06199999;fill:#000000;fill-opacity:1;fill-rule:nonzero;stroke:none" />
  </g>
  <g
     id="base-topright">
    <path
       inkscape:connector-curvature="0"
       d="m 17,0 0,3 3,0 C 20,1.338 18.662,0 17,0 z"
       id="rect3934"
       style="fill:url(#linearGradient4061-6);fill-opacity:1;fill-rule:nonzero;stroke:none" />
    <path
       inkscape:connector-curvature="0"
       d="m 17,0 0,2 c 1.662,0 3,0.446 3,1 0,-1.662 -1.338,-3 -3,-3 z"
       id="path4028"
       style="opacity:0.06199999;fill:#000000;fill-opacity:1;fill-rule:nonzero;stroke:none" />
  </g>
  <g
     id="base-top">
    <g
       id="g4012">
      <path
         inkscape:connector-curvature="0"
         d="M 3,0 3,3 17,3 17,0 3,0 z"
         id="rect3936"
         style="fill:url(#linearGradient3280);fill-opacity:1;fill-rule:nonzero;stroke:none" />
    </g>
    <path
       inkscape:connector-curvature="0"
       d="M 3,0 3,2 17,2 17,0 3,0 z"
       id="rect3879"
       style="opacity:0.06199999;fill:#000000;fill-opacity:1;fill-rule:nonzero;stroke:none" />
  </g>
  <path
     d="M 3,3 3,17 17,17 17,3 3,3 z"
     id="base-center"
     style="fill:url(#linearGradient3981-7);fill-opacity:1;fill-rule:nonzero;stroke:none" />
  <path
     inkscape:connector-curvature="0"
     d="M 0,3 0,17 3,17 3,3 0,3 z"
     id="base-left"
     style="fill:url(#linearGradient3876);fill-opacity:1;fill-rule:nonzero;stroke:none" />
  <path
     inkscape:connector-curvature="0"
     d="m 17,3 0,14 3,0 0,-14 -3,0 z"
     id="base-right"
     style="fill:url(#linearGradient3882);fill-opacity:1;fill-rule:nonzero;stroke:none" />
  <g
     id="base-bottomright">
    <path
       inkscape:connector-curvature="0"
       d="m 17,17 0,3 c 1.662,0 3,-1.338 3,-3 l -3,0 z"
       id="rect3932"
       style="fill:url(#linearGradient4086-5);fill-opacity:1;fill-rule:nonzero;stroke:none" />
    <path
       inkscape:connector-curvature="0"
       d="m 20,17 c 0,1.108 -1.338,2 -3,2 l 0,1 c 1.662,0 3,-1.338 3,-3 z"
       id="rect3895"
       style="fill:#ffffff;fill-opacity:1;fill-rule:nonzero;stroke:none" />
  </g>
  <g
     id="base-bottomleft">
    <path
       inkscape:connector-curvature="0"
       d="m 0,17 c 0,1.662 1.338,3 3,3 l 0,-3 -3,0 z"
       id="rect3926"
       style="fill:url(#linearGradient3968-2);fill-opacity:1;fill-rule:nonzero;stroke:none" />
    <path
       inkscape:connector-curvature="0"
       d="m 0,17 c 0,1.662 1.338,3 3,3 L 3,19 C 1.338,19 0,18.108 0,17 z"
       id="path3916"
       style="fill:#ffffff;fill-opacity:1;fill-rule:nonzero;stroke:none" />
  </g>
  <g
     id="base-bottom">
    <path
       inkscape:connector-curvature="0"
       d="m 3,17 0,3 14,0 0,-3 -14,0 z"
       id="rect3928"
       style="fill:url(#linearGradient4088-7);fill-opacity:1;fill-rule:nonzero;stroke:none" />
    <path
       inkscape:connector-curvature="0"
       d="m 3,19 0,1 14,0 0,-1 -14,0 z"
       id="path3918"
       style="opacity:0.875;fill:#ffffff;fill-opacity:1;fill-rule:nonzero;stroke:none" />
  </g>
</svg>
